storage/app/icons/phosphoricons/fill/volleyball-fill.svg

<svg xmlns="http://www.w3.org/2000/svg" fill="currentColor" viewBox="0 0 256 256"><path d="M128 24a104 104 0 1 0 104 104A104.11 104.11 0 0 0 128 24m87.63 96h-34.26a104.18 104.18 0 0 0-35.78-78.23A88.18 88.18 0 0 1 215.63 120m-171.1 35.87a87.95 87.95 0 0 1 32.74-99.74l17.12 29.65a104.14 104.14 0 0 0-49.86 70.09m14.37 26.56a88 88 0 0 1 43.49-82.79L118.76 128l-41.49 71.87a88.6 88.6 0 0 1-18.37-17.44m150.84-21.85a88 88 0 0 1-93.49 3.78L132.62 136h83a87.2 87.2 0 0 1-5.88 24.58"/></svg>

<svg xmlns="http://www.w3.org/2000/svg" viewBox="0 0 256 256" fill="currentColor"><path d="M128,24A104,104,0,1,0,232,128,104.11,104.11,0,0,0,128,24Zm87.63,96H181.37a104.18,104.18,0,0,0-35.78-78.23A88.18,88.18,0,0,1,215.63,120ZM44.53,155.87A87.95,87.95,0,0,1,77.27,56.13L94.39,85.78a104.14,104.14,0,0,0-49.86,70.09ZM58.9,182.43a88,88,0,0,1,43.49-82.79L118.76,128,77.27,199.87A88.62,88.62,0,0,1,58.9,182.43Zm150.84-21.85a88,88,0,0,1-93.49,3.78L132.62,136h83A87.16,87.16,0,0,1,209.74,160.58Z"/></svg>
